img/icons/copyright.svg

<svg width="18" height="18" viewBox="0 0 18 18" fill="none" xmlns="http://www.w3.org/2000/svg">
<path d="M9 0.25C4.16797 0.25 0.25 4.16797 0.25 9C0.25 13.832 4.16797 17.75 9 17.75C13.832 17.75 17.75 13.832 17.75 9C17.75 4.16797 13.832 0.25 9 0.25ZM9 16.2656C4.98828 16.2656 1.73438 13.0117 1.73438 9C1.73438 4.98828 4.98828 1.73438 9 1.73438C13.0117 1.73438 16.2656 4.98828 16.2656 9C16.2656 13.0117 13.0117 16.2656 9 16.2656ZM9.10938 5.86133C10.1445 5.86133 10.8477 6.52148 10.9258 7.49023C10.9316 7.57227 11 7.63477 11.082 7.63477H12.1895C12.2402 7.63477 12.2812 7.59375 12.2812 7.54297C12.2812 5.84961 10.9453 4.66406 9.10352 4.66406C6.95703 4.66406 5.71875 6.11328 5.71875 8.50781V9.5293C5.71875 11.9062 6.95703 13.3359 9.10352 13.3359C10.9395 13.3359 12.2812 12.1875 12.2812 10.5742C12.2812 10.5234 12.2402 10.4824 12.1895 10.4824H11.0801C10.998 10.4824 10.9316 10.5449 10.9238 10.625C10.8418 11.5254 10.1406 12.1445 9.10742 12.1445C7.83203 12.1445 7.11328 11.209 7.11328 9.53516V8.50781C7.11523 6.80859 7.83594 5.86133 9.10938 5.86133Z" fill="#DCDCDC"/>
</svg>

<svg width="18" height="18" fill="none" xmlns="http://www.w3.org/2000/svg"><path d="M9 .25a8.75 8.75 0 10.001 17.501A8.75 8.75 0 009 .25zm0 16.016A7.267 7.267 0 019 1.734a7.267 7.267 0 010 14.532zM9.11 5.86c1.035 0 1.738.66 1.816 1.63a.156.156 0 00.156.144h1.107a.092.092 0 00.092-.092c0-1.693-1.336-2.879-3.177-2.879-2.147 0-3.385 1.45-3.385 3.844v1.021c0 2.377 1.238 3.807 3.385 3.807 1.836 0 3.177-1.149 3.177-2.762a.092.092 0 00-.091-.092h-1.11a.157.157 0 00-.156.143c-.082.9-.783 1.52-1.817 1.52-1.275 0-1.994-.936-1.994-2.61V8.508c.002-1.7.723-2.647 1.996-2.647z" fill="#DCDCDC"/></svg>
